X: 10243
Q: "Slow and tenderly."
M: 2/4
L: 1/16
K: G
{d}c2B2A2G2 | F2E2 (D2EF) | G2B2 d3B | A2z2 B2B2 |\
{d}c2B2 e2d2 | d2 c4 BA | G2G2 {B}A2F2 | HG4 z4 |\
(D2 c4) (Bd/c/) | (HB2{AcB}HA2) B2B2 |\
{d}c2B2 {B}A2G2 | F2E2 D2(EF) | G2B2 (e2dB) |  A2z2 B2B2 |\
{d}c2B2 {B}A2G2 | F2E2 (D2EF) | G2B2 (d4 | de) (de) (dc)(AB) |\


